img/svg/clock.svg

<svg width="18" height="18" viewBox="0 0 18 18" fill="none" xmlns="http://www.w3.org/2000/svg">
<path d="M14.8337 3.16635C13.2754 1.60816 11.2037 0.75 9 0.75C6.79635 0.75 4.72457 1.60816 3.16635 3.16635C1.60813 4.7246 0.75 6.79635 0.75 9C0.75 11.2037 1.60813 13.2754 3.16635 14.8337C4.72457 16.3918 6.79635 17.25 9 17.25C11.2037 17.25 13.2754 16.3918 14.8337 14.8337C16.3919 13.2754 17.25 11.2037 17.25 9C17.25 6.79635 16.3919 4.7246 14.8337 3.16635ZM9 16.2832C4.98402 16.2832 1.7168 13.016 1.7168 9C1.7168 4.98402 4.98402 1.7168 9 1.7168C13.016 1.7168 16.2832 4.98402 16.2832 9C16.2832 13.016 13.016 16.2832 9 16.2832Z" fill="#342834"/>
<path d="M9.00022 2.82115C5.59313 2.82115 2.82129 5.59299 2.82129 9.00004C2.82129 12.4071 5.59313 15.1789 9.00022 15.1789C12.4073 15.1789 15.1791 12.4071 15.1791 9.00004C15.1791 5.59302 12.4073 2.82115 9.00022 2.82115ZM9.00022 14.2121C6.12622 14.2121 3.78809 11.874 3.78809 9.00004C3.78809 6.12611 6.12622 3.78794 9.00022 3.78794C11.8742 3.78794 14.2123 6.12611 14.2123 9.00004C14.2123 11.874 11.8742 14.2121 9.00022 14.2121Z" fill="#342834"/>
<path d="M8.99982 5.40997C8.73285 5.40997 8.51642 5.6264 8.51642 5.89337V8.72093L6.96445 9.61689C6.73323 9.75037 6.65401 10.046 6.7875 10.2772C6.87702 10.4323 7.03951 10.519 7.2066 10.519C7.28862 10.519 7.37173 10.4981 7.44782 10.4541L9.24152 9.41863C9.39108 9.3323 9.48322 9.17271 9.48322 9.00001V5.89337C9.48322 5.62637 9.26678 5.40997 8.99982 5.40997Z" fill="#342834"/>
</svg>

<svg width="18" height="18" viewBox="0 0 18 18" fill="none" xmlns="http://www.w3.org/2000/svg"><path d="M14.834 3.166A8.196 8.196 0 009 .75a8.196 8.196 0 00-5.834 2.416A8.196 8.196 0 00.75 9c0 2.204.858 4.275 2.416 5.834A8.196 8.196 0 009 17.25a8.197 8.197 0 005.834-2.416A8.196 8.196 0 0017.25 9a8.196 8.196 0 00-2.416-5.834zM9 16.283c-4.016 0-7.283-3.267-7.283-7.283S4.984 1.717 9 1.717 16.283 4.984 16.283 9 13.016 16.283 9 16.283z" fill="#342834"/><path d="M9 2.821A6.186 6.186 0 002.821 9a6.186 6.186 0 006.18 6.179A6.186 6.186 0 0015.178 9 6.186 6.186 0 009 2.821zm0 11.391A5.218 5.218 0 013.788 9 5.218 5.218 0 019 3.788 5.218 5.218 0 0114.212 9 5.218 5.218 0 019 14.212z" fill="#342834"/><path d="M9 5.41a.483.483 0 00-.484.483v2.828l-1.552.896a.483.483 0 10.484.837L9.242 9.42A.483.483 0 009.483 9V5.893A.483.483 0 009 5.41z" fill="#342834"/></svg>
